dist/assets/icons/thin/ring.svg

<svg xmlns="http://www.w3.org/2000/svg" viewBox="0 0 512 512"><!--! Font Awesome Pro 7.2.0 by @fontawesome - https://fontawesome.com License - https://fontawesome.com/license (Commercial License) Copyright 2026 Fonticons, Inc. --><path fill="currentColor" d="M84.1 114.3C127.7 93.3 188.5 80 256 80s128.3 13.3 171.9 34.3c44.1 21.4 68.1 49.3 68.1 77.7 0 18.7-10.5 37.3-30.4 53.9-9.2-6.6-19.6-12.6-30.8-18-46.2-22.3-109.4-35.9-178.8-35.9S123.3 205.6 77.2 227.9c-11.2 5.4-21.5 11.4-30.8 18-19.9-16.6-30.4-35.2-30.4-53.9 0-28.3 24-56.3 68.1-77.7zM511.5 184C507.4 149.6 477.2 120.5 434.8 99.9 388.7 77.6 325.4 64 256 64S123.3 77.6 77.2 99.9C34.8 120.5 4.6 149.6 .5 184L0 184 0 320.5c0 37.8 31.6 69.7 77.2 91.7 46.2 22.2 109.4 35.8 178.8 35.8s132.7-13.5 178.8-35.8c45.6-22 77.2-53.9 77.2-91.7l0-136.5-.5 0zM496 237.2l0 83.3c0 28.2-24 56-68.1 77.3-43.6 21-104.3 34.2-171.9 34.2S127.7 418.8 84.1 397.8C40 376.5 16 348.7 16 320.5l0-83.3c13.6 18.4 35.1 34.2 61.2 46.8 46.2 22.3 109.4 35.9 178.8 35.9s132.7-13.6 178.8-35.9c26.1-12.6 47.5-28.5 61.2-46.8zM84.1 269.7c-8.9-4.3-17-8.9-24.2-13.7 7.2-4.8 15.3-9.4 24.2-13.7 43.6-21.1 104.3-34.3 171.9-34.3s128.3 13.3 171.9 34.3c8.9 4.3 17 8.9 24.2 13.7-7.2 4.8-15.3 9.4-24.2 13.7-43.6 21.1-104.3 34.3-171.9 34.3S127.7 290.7 84.1 269.7z"/></svg>

<svg xmlns="http://www.w3.org/2000/svg" viewBox="0 0 512 512"><!--! Font Awesome Pro 6.7.2 by @fontawesome - https://fontawesome.com License - https://fontawesome.com/license (Commercial License) Copyright 2024 Fonticons, Inc. --><path d="M84.1 114.3C127.7 93.3 188.5 80 256 80s128.3 13.3 171.9 34.3C472 135.7 496 163.7 496 192c0 18.7-10.5 37.3-30.4 53.9c-9.2-6.6-19.6-12.6-30.8-18C388.7 205.6 325.4 192 256 192s-132.7 13.6-178.8 35.9c-11.2 5.4-21.5 11.4-30.8 18C26.5 229.3 16 210.7 16 192c0-28.3 24-56.3 68.1-77.7zM511.5 184c-4.1-34.4-34.3-63.5-76.7-84.1C388.7 77.6 325.4 64 256 64S123.3 77.6 77.2 99.9C34.8 120.5 4.6 149.6 .5 184L0 184l0 8L0 320.5c0 37.8 31.6 69.7 77.2 91.7C123.3 434.5 186.6 448 256 448s132.7-13.5 178.8-35.8c45.6-22 77.2-53.9 77.2-91.7L512 192l0-8-.5 0zM496 237.2l0 83.3c0 28.2-24 56-68.1 77.3C384.3 418.8 323.6 432 256 432s-128.3-13.2-171.9-34.2C40 376.5 16 348.7 16 320.5l0-83.3c13.6 18.4 35.1 34.2 61.2 46.8C123.3 306.4 186.6 320 256 320s132.7-13.6 178.8-35.9c26.1-12.6 47.5-28.5 61.2-46.8zM84.1 269.7c-8.9-4.3-17-8.9-24.2-13.7c7.2-4.8 15.3-9.4 24.2-13.7C127.7 221.3 188.5 208 256 208s128.3 13.3 171.9 34.3c8.9 4.3 17 8.9 24.2 13.7c-7.2 4.8-15.3 9.4-24.2 13.7C384.3 290.7 323.5 304 256 304s-128.3-13.3-171.9-34.3z"/></svg>
